packages/dnb-ui-lib/assets/icons/ainvoice_medium.svg

<svg width="24" height="24" viewBox="0 0 24 24" fill="none" xmlns="http://www.w3.org/2000/svg">
<path fill-rule="evenodd" clip-rule="evenodd" d="M5.25 2C5.25 1.86193 5.36193 1.75 5.5 1.75H15.5362C15.6097 1.75 15.6795 1.78238 15.727 1.83851L20.6908 7.70482C20.729 7.74996 20.75 7.80718 20.75 7.86631V22C20.75 22.1381 20.6381 22.25 20.5 22.25H5.5C5.36193 22.25 5.25 22.1381 5.25 22V19.5C5.25 19.0858 4.91421 18.75 4.5 18.75C4.08579 18.75 3.75 19.0858 3.75 19.5V22C3.75 22.9665 4.5335 23.75 5.5 23.75H20.5C21.4665 23.75 22.25 22.9665 22.25 22V7.86631C22.25 7.4524 22.1033 7.05188 21.8359 6.73591L16.8721 0.869601C16.5396 0.476638 16.051 0.25 15.5362 0.25H5.5C4.5335 0.25 3.75 1.0335 3.75 2V6.5C3.75 6.91421 4.08579 7.25 4.5 7.25C4.91421 7.25 5.25 6.91421 5.25 6.5V2ZM7.59997 15.672C7.51464 15.576 7.47197 15.4267 7.47197 15.224V11.88C7.47197 10.9307 7.18397 10.1893 6.60797 9.65599C6.03197 9.12265 5.1893 8.85599 4.07997 8.85599C3.22664 8.85599 2.54397 9.01065 2.03197 9.31999C1.51997 9.61865 1.14664 10.0613 0.911971 10.648L2.38397 11.4C2.51197 11.0693 2.69864 10.8133 2.94397 10.632C3.19997 10.4507 3.54664 10.36 3.98397 10.36C4.5173 10.36 4.9173 10.488 5.18397 10.744C5.46131 11 5.59997 11.3467 5.59997 11.784V11.96L3.50397 12.28C2.51197 12.44 1.7813 12.728 1.31197 13.144C0.842638 13.56 0.607971 14.1253 0.607971 14.84C0.607971 15.5333 0.853305 16.0933 1.34397 16.52C1.83464 16.936 2.4853 17.144 3.29597 17.144C3.78664 17.144 4.25064 17.0373 4.68797 16.824C5.1253 16.6107 5.48264 16.3227 5.75997 15.96C5.83464 16.3227 6.0053 16.6107 6.27197 16.824C6.5493 17.0373 6.89064 17.144 7.29597 17.144C7.59464 17.144 7.83997 17.096 8.03197 17L8.04797 15.8C7.8453 15.8 7.69597 15.7573 7.59997 15.672ZM5.07197 15.128C4.71997 15.512 4.23997 15.704 3.63197 15.704C3.2693 15.704 2.9813 15.6187 2.76797 15.448C2.5653 15.2773 2.46397 15.0533 2.46397 14.776C2.46397 14.4347 2.5813 14.168 2.81597 13.976C3.0613 13.7733 3.45064 13.6293 3.98397 13.544L5.59997 13.288V13.512C5.59997 14.1947 5.42397 14.7333 5.07197 15.128Z" fill="black"/>
</svg>

<svg width="24" height="24" viewBox="0 0 24 24" fill="none" xmlns="http://www.w3.org/2000/svg"><path fill-rule="evenodd" clip-rule="evenodd" d="M5.25 2a.25.25 0 01.25-.25h10.036a.25.25 0 01.191.089l4.964 5.866a.25.25 0 01.059.161V22a.25.25 0 01-.25.25h-15a.25.25 0 01-.25-.25v-2.5a.75.75 0 00-1.5 0V22c0 .966.784 1.75 1.75 1.75h15A1.75 1.75 0 0022.25 22V7.866a1.75 1.75 0 00-.414-1.13L16.872.87a1.75 1.75 0 00-1.336-.62H5.5A1.75 1.75 0 003.75 2v4.5a.75.75 0 001.5 0V2zM7.6 15.672c-.085-.096-.128-.245-.128-.448V11.88c0-.95-.288-1.69-.864-2.224-.576-.533-1.419-.8-2.528-.8-.853 0-1.536.155-2.048.464-.512.299-.885.741-1.12 1.328l1.472.752c.128-.33.315-.587.56-.768.256-.181.603-.272 1.04-.272.533 0 .933.128 1.2.384.277.256.416.603.416 1.04v.176l-2.096.32c-.992.16-1.723.448-2.192.864-.47.416-.704.981-.704 1.696 0 .693.245 1.253.736 1.68.49.416 1.141.624 1.952.624.49 0 .955-.107 1.392-.32a2.955 2.955 0 001.072-.864c.075.363.245.65.512.864.277.213.619.32 1.024.32.299 0 .544-.048.736-.144l.016-1.2c-.203 0-.352-.043-.448-.128zm-2.528-.544c-.352.384-.832.576-1.44.576-.363 0-.65-.085-.864-.256a.836.836 0 01-.304-.672c0-.341.117-.608.352-.8.245-.203.635-.347 1.168-.432l1.616-.256v.224c0 .683-.176 1.221-.528 1.616z" fill="#000"/></svg>
